X: 6169
T: Captain White's
R: jig
M: 6/8
K: Dmajor
DFA d2 f|edc B2 d|A2 d B2 F|GFG E2 E|
DFA d2 f|edc B2 d|A2 d A2 F|EDE D2:|
e^de a2 e|e^de A2 e|efe dcB|A2 c A2 e|
e^de a2 e|e^de A2 e|efe dcB|A3 A2:|
D2 f fef|d2 A ABA|D2 f fgf|gfe cBA|
D2 f fef|d2 A A2 A|Bcd cde|BAG FE||

